X:1
T:O Come, Let Us Adore Him
T:O Come, Let Us Adore Him
%%score ( 1 2 ) ( 3 4 5 )
L:1/8
M:4/4
K:F
V:1 treble nm="Piano" snm="Pno."
V:2 treble 
V:3 bass nm="Piano" snm="Pno."
V:4 bass 
V:5 bass 
V:1
 [CF]2 | [CF]2 [CE]2 [CF]2 [CG]2 | [CF]4 C2 [FA]2 | [FA]2 [CG]2 [FA]2 [FB]2 | [FA]4 [EG]2 [FA]2 | %5
w: 1~~~O|come, let us a-|dore him, O|come, let us a-|dore him, O|
w: 2~We'll|praise his name for-|e- ver, we'll|praise his name for-|e- ver, we'll|
w: 3~We'll|give him all the|glo- ry, we'll|give him all the|glo- ry, we'll|
w: 4~~For|he a- lone is|wort- hy, for|he a- lone is|wort- hy, for|
 [EB]2 [FA]2 [CG]2 [=B,F]2 | [CE]4 (([CF]2 [DB]2)) | ((([CA]4 [B,G]3))) [B,F] | [A,F]6 |] %9
w: come, let us a-|dore him, _|Christ _ the|Lord.|
w: praise his name for-|e- ver, _|Christ _ the|Lord.|
w: give him all the|glo- ry, _|Christ _ the|Lord.|
w: he a- lone is|wort- hy, _|Christ _ the|Lord.|
V:2
 x2 | x8 | x4 C2 x2 | x8 | x8 | x8 | x8 | x8 | x6 |] %9
V:3
 [F,,A,]2 | [F,A,]2 G,2 [F,A,]2 [F,B,]2 | [F,A,]4 [F,A,]2 [F,C]2 | [F,C]2 [E,C]2 [F,C]2 [B,,D]2 | %4
 [C,C]4 [C,C]2 [F,C]2 | [G,C]2 [F,C]2 [E,G,]2 [D,G,]2 | G,4 F,4 | ([C,-F,]4 [C,E,]3) C, | %8
 [F,,C,]6 |] %9
V:4
 x2 | x2 F,2 x4 | x8 | x8 | x8 | x8 | (C,2 B,,2) (A,,2 G,,2) | x4 x2 x C, | x6 |] %9
V:5
 x2 | F,,8- | F,,6 x2 | x8 | x8 | x8 | x8 | x8 | x6 |] %9

